SVG_Azure_Grouped/AI/Cognitive Services Communication Services.svg

<?xml version="1.0" encoding="UTF-8" standalone="no"?>
<!-- Generated by Microsoft Visio, SVG Export Cognitive Services Communication Services.svg Page-1 -->

<svg
   xmlns:dc="http://purl.org/dc/elements/1.1/"
   xmlns:cc="http://creativecommons.org/ns#"
   xmlns:rdf="http://www.w3.org/1999/02/22-rdf-syntax-ns#"
   xmlns:svg="http://www.w3.org/2000/svg"
   xmlns="http://www.w3.org/2000/svg"
   xmlns:sodipodi="http://sodipodi.sourceforge.net/DTD/sodipodi-0.dtd"
   xmlns:inkscape="http://www.inkscape.org/namespaces/inkscape"
   width="0.78740263in"
   height="0.59060699in"
   viewBox="0 0 56.692897 42.523579"
   xml:space="preserve"
   class="st5"
   version="1.1"
   id="svg45"
   sodipodi:docname="Cognitive Services Communication Services.svg"
   style="font-size:12px;overflow:visible;color-interpolation-filters:sRGB;fill:none;fill-rule:evenodd;stroke-linecap:square;stroke-miterlimit:3"
   inkscape:version="0.92.5 (2060ec1f9f, 2020-04-08)"><metadata
   id="metadata49"><rdf:RDF><cc:Work
       rdf:about=""><dc:format>image/svg+xml</dc:format><dc:type
         rdf:resource="http://purl.org/dc/dcmitype/StillImage" /></cc:Work></rdf:RDF></metadata><sodipodi:namedview
   pagecolor="#ffffff"
   bordercolor="#666666"
   borderopacity="1"
   objecttolerance="10"
   gridtolerance="10"
   guidetolerance="10"
   inkscape:pageopacity="0"
   inkscape:pageshadow="2"
   inkscape:window-width="640"
   inkscape:window-height="480"
   id="namedview47"
   showgrid="false"
   inkscape:zoom="1.6011967"
   inkscape:cx="37.795396"
   inkscape:cy="28.34058"
   inkscape:window-x="0"
   inkscape:window-y="0"
   inkscape:window-maximized="0"
   inkscape:current-layer="svg45" />
	<style
   type="text/css"
   id="style2">
	<![CDATA[
		.st1 {fill:url(#grad0-6);stroke:none;stroke-linecap:butt;stroke-width:34}
		.st2 {fill:#ffffff;fill-opacity:0.8;stroke:none;stroke-linecap:butt;stroke-width:34}
		.st3 {fill:url(#grad0-12);stroke:none;stroke-linecap:butt;stroke-width:34}
		.st4 {fill:#0078d4;stroke:none;stroke-linecap:butt;stroke-width:34}
		.st5 {fill:none;fill-rule:evenodd;font-size:12px;overflow:visible;stroke-linecap:square;stroke-miterlimit:3}
	]]>
	</style>

	<defs
   id="Patterns_And_Gradients">
		<linearGradient
   id="grad0-6"
   x1="0"
   y1="73.804975"
   x2="45.378287"
   y2="73.804975"
   gradientTransform="scale(1.0773875,0.92817114)"
   gradientUnits="userSpaceOnUse">
			<stop
   offset="0"
   stop-color="#a67af4"
   stop-opacity="1"
   id="stop4" />
			<stop
   offset="1"
   stop-color="#773adc"
   stop-opacity="1"
   id="stop6" />
		</linearGradient>
		<linearGradient
   id="grad0-12"
   x1="0"
   y1="82.572072"
   x2="26.103716"
   y2="82.572072"
   gradientTransform="scale(0.98311674,1.0171732)"
   gradientUnits="userSpaceOnUse">
			<stop
   offset="0"
   stop-color="#c3f1ff"
   stop-opacity="1"
   id="stop9" />
			<stop
   offset="1"
   stop-color="#50e6ff"
   stop-opacity="1"
   id="stop11" />
		</linearGradient>
	</defs>
	<g
   id="g43"
   transform="translate(-34,-34.002837)">
		<title
   id="title15">Page-1</title>
		<g
   id="group18673-1"
   transform="translate(34,-34.0157)">
			<title
   id="title17">Cognitive Services Communication Services.18673</title>
			<g
   id="group18674-2">
				<title
   id="title19">Sheet.18674</title>
				<g
   id="shape18675-3"
   transform="translate(0,-0.485187)">
					<title
   id="title21">Sheet.18675</title>
					<path
   d="m 2.83,68.51 h 43.23 a 2.65827,2.75035 0 0 1 2.83,2.52 v 30.59 a 2.66457,2.75687 0 0 1 -2.83,2.52 H 28.37 a 0.529134,0.547464 -180 0 0 -0.286614,0.088 L 19.01,110.42 a 0.944882,0.977614 0 0 1 -1.51496,-0.66804 L 17.49,104.56 a 0.444094,0.459479 -180 0 0 -0.472441,-0.42037 L 2.83,104.14 A 2.66142,2.75361 0 0 1 0,101.62 V 71.03 a 2.66457,2.75687 0 0 1 2.83,-2.52 z"
   class="st1"
   id="path23"
   inkscape:connector-curvature="0"
   style="fill:url(#grad0-6);stroke:none;stroke-width:34;stroke-linecap:butt" />
				</g>
				<g
   id="shape18676-7"
   transform="translate(10.9197,-23.1564)">
					<title
   id="title26">Sheet.18676</title>
					<path
   d="m 23.82,104.82 a 3.22835,3.34018 0 1 1 -3.22,3.34 3.22835,3.34018 0 0 1 3.22,-3.34 z M 10.3,108.2 a 3.22835,3.34018 -180 1 0 3.23,-3.35 3.22835,3.34018 -180 0 0 -3.23,3.35 z M 0,108.2 A 3.22835,3.34018 -180 1 0 3.23,104.85 3.22835,3.34018 -180 0 0 0,108.2 Z"
   class="st2"
   id="path28"
   inkscape:connector-curvature="0"
   style="fill:#ffffff;fill-opacity:0.8;stroke:none;stroke-width:34;stroke-linecap:butt" />
				</g>
				<g
   id="shape18677-9"
   transform="translate(31.0299)">
					<title
   id="title31">Sheet.18677</title>
					<ellipse
   cx="12.8315"
   cy="97.266098"
   rx="12.8315"
   ry="13.276"
   class="st3"
   id="ellipse33"
   style="fill:url(#grad0-12);stroke:none;stroke-width:34;stroke-linecap:butt" />
				</g>
				<g
   id="shape18678-13"
   transform="translate(37.4677,-4.20866)">
					<title
   id="title36">Sheet.18678</title>
					<path
   d="m 13.44,108.6 -1.69,-2.65 a 0.944882,0.977614 -180 0 0 -1.25984,-0.32587 L 9.28,106.3 A 0.611024,0.63219 0 0 1 8.555591,106.1892 18.8976,19.5523 0 0 1 6.38,103.49 l -0.97,-1.7 A 18.7244,19.373 0 0 1 4.26,98.48 0.629921,0.651743 0 0 1 4.534016,97.776118 L 5.71,97.04 A 0.944882,0.977614 -180 0 0 6.069055,95.7691 L 4.74,92.92 A 0.897638,0.928733 -180 0 0 3.56835,92.486591 5.42362,5.6115 -180 0 0 1.11,95.65 c -1.11,2.65 0.88,5.78 2.35,8.44 h 0.02 c 1.47,2.66 3.07,6.01 5.84,6.37 a 5.41417,5.60173 -180 0 0 3.88,-0.59 0.891339,0.922216 -180 0 0 0.23937,-1.26438 z"
   class="st4"
   id="path38"
   inkscape:connector-curvature="0"
   style="fill:#0078d4;stroke:none;stroke-width:34;stroke-linecap:butt" />
				</g>
			</g>
		</g>
	</g>
</svg>

<?xml version="1.0" encoding="UTF-8" standalone="no"?>
<!DOCTYPE svg PUBLIC "-//W3C//DTD SVG 1.1//EN" "http://www.w3.org/Graphics/SVG/1.1/DTD/svg11.dtd">
<!-- Generated by Microsoft Visio, SVG Export Cognitive Services Communication Services.svg Page-1 -->
<svg xmlns="http://www.w3.org/2000/svg" xmlns:xlink="http://www.w3.org/1999/xlink" xmlns:ev="http://www.w3.org/2001/xml-events"
		width="1.73185in" height="1.53531in" viewBox="0 0 124.693 110.542" xml:space="preserve" color-interpolation-filters="sRGB"
		class="st5">
	<style type="text/css">
	<![CDATA[
		.st1 {fill:url(#grad0-6);stroke:none;stroke-linecap:butt;stroke-width:34}
		.st2 {fill:#ffffff;fill-opacity:0.8;stroke:none;stroke-linecap:butt;stroke-width:34}
		.st3 {fill:url(#grad0-12);stroke:none;stroke-linecap:butt;stroke-width:34}
		.st4 {fill:#0078d4;stroke:none;stroke-linecap:butt;stroke-width:34}
		.st5 {fill:none;fill-rule:evenodd;font-size:12px;overflow:visible;stroke-linecap:square;stroke-miterlimit:3}
	]]>
	</style>

	<defs id="Patterns_And_Gradients">
		<linearGradient id="grad0-6" x1="0" y1="0" x2="1" y2="0" gradientTransform="rotate(90 0.5 0.5)">
			<stop offset="0" stop-color="#a67af4" stop-opacity="1"/>
			<stop offset="1" stop-color="#773adc" stop-opacity="1"/>
		</linearGradient>
		<linearGradient id="grad0-12" x1="0" y1="0" x2="1" y2="0" gradientTransform="rotate(90 0.5 0.5)">
			<stop offset="0" stop-color="#c3f1ff" stop-opacity="1"/>
			<stop offset="1" stop-color="#50e6ff" stop-opacity="1"/>
		</linearGradient>
	</defs>
	<g>
		<title>Page-1</title>
		<g id="group18243-1" transform="translate(34,-34.0157)">
			<title>Cognitive Services Communication Services.18243</title>
			<g id="group18244-2">
				<title>Sheet.18244</title>
				<g id="shape18245-3" transform="translate(-2.8777E-13,-0.485187)">
					<title>Sheet.18245</title>
					<path d="M2.83 68.51 L46.06 68.51 A2.65827 2.75035 0 0 1 48.89 71.03 L48.89 101.62 A2.66457 2.75687 0 0 1 46.06
								 104.14 L28.37 104.14 a0.529134 0.547464 -180 0 0 -0.286614 0.0879852 L19.01 110.42 a0.944882 0.977614
								 0 0 1 -1.51496 -0.668036 L17.49 104.56 a0.444094 0.459479 -180 0 0 -0.472441 -0.420374 L2.83 104.14
								 A2.66142 2.75361 0 0 1 0 101.62 L0 71.03 A2.66457 2.75687 0 0 1 2.83 68.51 Z" class="st1"/>
				</g>
				<g id="shape18246-7" transform="translate(10.9197,-23.1564)">
					<title>Sheet.18246</title>
					<path d="M23.82 104.82 A3.22835 3.34018 0 1 1 20.6 108.16 A3.22835 3.34018 0 0 1 23.82 104.82 ZM10.3 108.2 A3.22835
								 3.34018 -180 1 0 13.53 104.85 A3.22835 3.34018 -180 0 0 10.3 108.2 ZM-0 108.2 A3.22835 3.34018 -180
								 1 0 3.23 104.85 A3.22835 3.34018 -180 0 0 -0 108.2 Z" class="st2"/>
				</g>
				<g id="shape18247-9" transform="translate(31.0299,1.42109E-14)">
					<title>Sheet.18247</title>
					<ellipse cx="12.8315" cy="97.2661" rx="12.8315" ry="13.276" class="st3"/>
				</g>
				<g id="shape18248-13" transform="translate(37.4677,-4.20866)">
					<title>Sheet.18248</title>
					<path d="M13.44 108.6 L11.75 105.95 a0.944882 0.977614 -180 0 0 -1.25984 -0.325871 L9.28 106.3 a0.611024 0.63219
								 0 0 1 -0.724409 -0.110796 A18.8976 19.5523 0 0 1 6.38 103.49 L5.41 101.79 A18.7244 19.373 0 0 1
								 4.26 98.48 a0.629921 0.651743 0 0 1 0.274016 -0.703882 L5.71 97.04 a0.944882 0.977614 -180 0 0 0.359055
								 -1.2709 L4.74 92.92 a0.897638 0.928733 -180 0 0 -1.17165 -0.433409 A5.42362 5.6115 -180 0 0 1.11
								 95.65 C0 98.3 1.99 101.43 3.46 104.09 L3.48 104.09 C4.95 106.75 6.55 110.1 9.32 110.46 A5.41417
								 5.60173 -180 0 0 13.2 109.87 a0.891339 0.922216 -180 0 0 0.23937 -1.26438 Z" class="st4"/>
				</g>
			</g>
		</g>
	</g>
</svg>
